Pictures/coffeeroasters-logo.svg

<svg width="50" height="50" viewBox="0 0 50 50" fill="none" xmlns="http://www.w3.org/2000/svg">
<g id="Group 3 Copy 4">
<rect id="Rectangle" width="50" height="50" rx="15" fill="#F2DECB"/>
<path id="Combined Shape" fill-rule="evenodd" clip-rule="evenodd" d="M26.4893 16.0027C22.9749 12.4911 17.7655 11.9856 14.8766 14.8777C11.9862 17.7682 12.4917 22.9778 16.0001 26.4908C16.9361 27.4269 18.0145 28.1424 19.153 28.6554C19.5265 26.4848 20.5975 24.3983 22.2234 22.6853C21.685 22.4933 21.133 22.3313 20.557 22.1738C17.1461 21.2378 15.4511 18.3922 15.0551 15.0562C15.3826 15.45 15.6808 15.8631 15.9781 16.275C16.555 17.0742 17.1286 17.8688 17.9065 18.5092C19.1168 19.5058 20.4452 19.8904 21.8986 20.3113C21.9547 20.3275 22.011 20.3439 22.0674 20.3602C22.7559 20.5597 23.3544 20.8553 23.9034 21.2003C25.3464 20.1457 26.9738 19.4437 28.6538 19.1542C28.1423 18.0157 27.4253 16.9387 26.4893 16.0027ZM20.5465 29.4894C20.77 27.3159 21.823 25.1903 23.5104 23.5028C27.0248 19.9912 32.2342 19.4842 35.1232 22.3778C38.0136 25.2683 37.5096 30.4779 33.9967 33.991C32.3092 35.6785 30.1838 36.7315 28.0103 36.9565C27.7208 36.985 27.4343 37 27.1538 37C25.2849 37 23.6154 36.3445 22.3854 35.1145C20.9695 33.7 20.3155 31.7019 20.5465 29.4894ZM25.6869 31.2729C26.8388 30.3939 28.0853 30.0459 29.4413 29.6754C32.8522 28.7394 34.5457 25.8938 34.9432 22.5578C34.6184 22.9494 34.3224 23.3598 34.0273 23.7688C33.4487 24.5709 32.8735 25.3681 32.0917 26.0108C30.8778 27.009 29.5463 27.3943 28.0864 27.8168L27.9308 27.8619C24.5934 28.8309 22.9434 31.6524 22.5624 34.936C22.8912 34.541 23.1924 34.1309 23.492 33.7229C24.1423 32.8374 24.7852 31.962 25.6869 31.2729Z" fill="#0E8784"/>
</g>
</svg>

<svg xmlns="http://www.w3.org/2000/svg" width="50" height="50" fill="none"><rect width="50" height="50" fill="#F2DECB" rx="15"/><path fill="#0E8784" fill-rule="evenodd" d="M26.49 16.003c-3.515-3.512-8.724-4.017-11.613-1.125-2.89 2.89-2.385 8.1 1.123 11.613a10.605 10.605 0 0 0 3.153 2.164c.373-2.17 1.445-4.257 3.07-5.97a23.017 23.017 0 0 0-1.666-.511c-3.41-.936-5.106-3.782-5.502-7.118.328.394.626.807.923 1.219.577.8 1.15 1.594 1.929 2.234 1.21.997 2.538 1.381 3.992 1.802l.168.05a7.17 7.17 0 0 1 1.836.84c1.443-1.055 3.07-1.757 4.75-2.047a10.573 10.573 0 0 0-2.164-3.151Zm-5.943 13.486c.223-2.173 1.276-4.299 2.963-5.986 3.515-3.512 8.724-4.019 11.613-1.125 2.89 2.89 2.387 8.1-1.126 11.613-1.688 1.688-3.813 2.74-5.987 2.965-.29.029-.576.044-.856.044-1.87 0-3.539-.656-4.769-1.886-1.416-1.414-2.07-3.412-1.838-5.625Zm5.14 1.784c1.152-.88 2.398-1.227 3.754-1.598 3.411-.936 5.105-3.781 5.502-7.117-.325.391-.62.802-.916 1.21-.578.803-1.154 1.6-1.935 2.243-1.214.998-2.546 1.383-4.006 1.806l-.155.045c-3.338.969-4.988 3.79-5.369 7.074.33-.395.63-.805.93-1.213.65-.886 1.293-1.761 2.195-2.45Z" clip-rule="evenodd"/></svg>
